X:1
T:Title
%%score { 1 | 2 }
L:1/8
M:4/4
K:C
V:1 treble nm="Grand Piano"
V:2 bass 
V:1
 z4 z2[Q:1/4=100] G2 | [Ec]3 [EB] [Ed]2 [Ec]2 | [EA]2 [CE]2 [EG]3 G | c3 c B2 c2 |[M:3/4] d6 | %5
[M:1/4] G2 |[M:4/4] [Ec]3 [EB] [Ed]2 [Ec]2 | [EA]2 [CE]2 [EG]2 [_EA]2 | [DB]3 [^Fc] [GB]2 [FA]2 | %9
[M:3/4] G6 |[M:1/4] G2 |[M:4/4] [Ec]3 [EB] [Ec]2 [EA]2 | B2 B4 G2 | B3 _B =B2 G2 | %14
 [_EA]2 [=EG]4 E2 | E3 E [DF]2 [EG]2 | A2 ^G2 A3 [GA] | [^FA]3 [FA] [FB]2 [Fc]2 | %18
[M:5/4] d2 ^c2 d3 e3 |[M:4/4] [Ec]3 [EB] [Ec]2 [EA]2 | B2 B4 G2 | B3 _B =B2 G2 | [_EA]2 [=EG]4 E2 | %23
 F2 G2 A3 G |[M:19/16] A-<AB-<Bc/-c/-c/-c/-c/-c-<cc |[M:4/4] c4 d3 d |[M:3/4] [Ec]6 |] %27
V:2
 z4 z2 G,2 | [C,G,]3 [C,G,] [C,G,]2 [C,G,]2 | [C,C]2 [C,G,]2 [C,C]3[K:treble] [CE] | %3
 [G,EG]3 [G,EG] [G,DF]2 [G,CE]2 |[M:3/4] [G,B,F]6 |[M:1/4] [G,B,F]2 | %6
[M:4/4][K:bass] [C,C]3 [C,C] [C,G,]2 [C,G,]2 | [C,C]2 [C,G,]2 [C,C]2 [C,G,]2 | %8
 [D,G,]3 [D,A,] [D,D]2 [D,C]2 |[M:3/4] [G,B,]6 |[M:1/4] [G,F]2 | %11
[M:4/4] [C,G,]3 [C,G,] [C,G,]2 [C,C]2 | [G,DF]2 [G,DF]4 [G,B,F]2 | %13
 [G,DF]3 [G,^CF] [G,DF]2 [G,B,F]2 | [C,C]2 [C,C]4 [C,G,C]2 | [C,G,C]3 [C,G,C] [C,C]2 [C,C]2 | %16
 [F,CF]2 [F,B,F]2 [F,CF]3 [E,^C] | [D,D]3 [D,D] [D,D]2 [D,C]2 | %18
[M:5/4][K:treble] [G,B,F]2 [G,_B,E]2 [G,=B,F]3 [G,B,G]3 | %19
[M:4/4][K:bass] [C,G,]3 [C,G,] [C,G,]2 [C,C]2 | [G,DF]2 [G,DF]4 [G,B,F]2 | %21
 [G,DF]3 [G,^CF] [G,DF]2 [G,B,F]2 | [C,C]2 [C,C]4 E,2 | F,2 G,2 A,3 G, | %24
[M:19/16] A,-<A,B,-<B,[K:treble]C/-C/-C/-C/-C/-C-<C[A,_E^F] |[M:4/4] [G,EG]4 [G,B,F]3 [G,B,F] | %26
[M:3/4][K:bass] [C,C]6 |] %27

